X: 1091
T: Hâlâ Gönlüm
C: Tanburî Mustafa Çavuş
O: Turkey
F: http://compmusic.upf.edu/node/140
N: muhayyer--sarki--aksak--hala_gonlum--tanburi_mustafa_cavus
N: makam= muhayyer
N: form= sarki
N: usul= aksak = 9/8
M: 9/8
L: 1/16
K: C _2/4B ^3/4f  
Q: 1/4=60
%%MIDI tuningsystem comma53
a2g4a2g2^f2e4 | ^f2d2z2f2g2a2_1/4b2c'4bag2z2g2a2g2f2 | 
w:   |   | 
g6c'4_1/4b2a2g4d'4d'c'd'e'c'2b2bc' | \
w:   | 
_1/4baa3g^fga2g4a2  | 
w:   | 
g2^f2e4f2d2z2f2 | g2a2_1/4b2c'4bag2z2  | \
w:   |   | 
g2a2g2^f2g6c'4_1/4b2a2g4d'4d'c'  | 
w:   | 
d'e'c'2_1/4b2bc'baa3g^fg | a2z2^f2g2a2_1/4b2c'2b2  | \
w:   |   | 
a2g2^f2g2a2g2f2e6e2z2e2a2g2=f2  | 
w:   | 
e2d2c2_1/4B2c4BAG4d6dcdec2B2  | _1/4BcBAA4z2z2a4 | 
w:   |   | 
g^fg2f2_1/4b2a2g2g2f2  | g2a2_1/4bag^fe6e2 | \
w:   |   | 
z2e2a2g2=f2e2d2c2  | 
w:   | 
_1/4B2c4BAG4d6dcdec2B2BcBAA4a2^fga2c'_1/4ba2g2fe | 
w:   | 
^fge4d2_1/4Bcd2=fed2  | e2dc_1/4Bcd4e2ABAG | 
w:   |   | 
_1/4Bcd2ABAGe4^fgag  | =fed2c_1/4BcABGA4a2 | 
w:   |   | 
^fga2c'_1/4ba2g2fefge4d2_1/4Bcd2=fed2e2dc | 
w:   | 
_1/4Bcd4e2ABAGBcd2  | A_1/4BAGe4^fgag=fed2 | 
w:   |   | 
c_1/4BcABGA4a2|
w:   | 


